static/logos/dropbox-wordmark-color.svg

<svg width="100" height="20" viewBox="0 0 100 20" fill="none" xmlns="http://www.w3.org/2000/svg">
<path fill-rule="evenodd" clip-rule="evenodd" d="M89.3125 14.6532L93.0011 9.69096L89.5988 5.00232H92.5125L94.4827 7.92768L96.4705 5.00232H99.3675L95.9148 9.67417L99.5522 14.6532H96.6896L94.4491 11.5045L92.2766 14.6532H89.3125Z" fill="black"/>
<path fill-rule="evenodd" clip-rule="evenodd" d="M80.0391 10.0205C80.0391 13.2057 81.7788 14.899 84.8604 14.899C87.7444 14.899 89.6994 13.2057 89.6994 10.0205V9.7523C89.6994 6.53351 87.7108 4.75647 84.8604 4.75647C82.0772 4.75647 80.0391 6.49998 80.0391 9.7523V10.0205ZM87.1879 10.0212C87.1879 11.7883 86.307 12.7476 84.8604 12.7476C83.4314 12.7476 82.5505 11.7715 82.5505 10.0212V9.78566C82.5505 7.90085 83.4811 6.90792 84.8772 6.90792C86.2902 6.90792 87.1879 7.96818 87.1879 9.78566V10.0212Z" fill="black"/>
<path fill-rule="evenodd" clip-rule="evenodd" d="M71.6128 12.8881C72.1355 14.1282 73.1807 14.899 74.7825 14.899C77.2606 14.899 78.8797 13.0891 78.8797 9.87174V9.58686C78.8797 6.36944 77.1598 4.77748 74.8499 4.76072C73.3156 4.76072 72.2366 5.44777 71.6972 6.70458V1.74438H69.2188V14.6476H71.4105L71.6128 12.8881ZM76.3675 9.8948C76.3675 11.8078 75.4836 12.7475 74.0323 12.7475C72.6479 12.7475 71.7305 11.7071 71.7305 9.8948V9.69342C71.7305 8.0322 72.6813 6.90787 74.0657 6.90787C75.4001 6.90787 76.3675 7.88113 76.3675 9.65991V9.8948Z" fill="black"/>
<path fill-rule="evenodd" clip-rule="evenodd" d="M58.2109 5.01371V17.9725H60.685V13.1195C61.2067 14.247 62.2335 14.9368 63.7819 14.9368C66.0708 14.9368 67.8716 13.2709 67.8716 10.0738V9.80459C67.8716 6.54014 66.2559 4.75647 63.7819 4.75647C62.1829 4.75647 61.1057 5.581 60.5841 6.8262L60.3315 5.01371H58.2109ZM65.3599 10.0123C65.3599 11.7911 64.4424 12.7476 63.0079 12.7476C61.6235 12.7476 60.7227 11.6736 60.7227 9.962V9.77734C60.7227 7.98184 61.6568 6.90792 63.058 6.90792C64.3757 6.90792 65.3599 7.86444 65.3599 9.79413V10.0123Z" fill="black"/>
<path fill-rule="evenodd" clip-rule="evenodd" d="M47.1953 10.0205C47.1953 13.2057 48.9518 14.899 52.0339 14.899C54.9172 14.899 56.8559 13.2057 56.8559 10.0205V9.7523C56.8559 6.53351 54.884 4.75647 52.0339 4.75647C49.25 4.75647 47.1953 6.49998 47.1953 9.7523V10.0205ZM54.3442 10.0212C54.3442 11.7883 53.4467 12.7476 52.0173 12.7476C50.588 12.7476 49.7071 11.7715 49.7071 10.0212V9.78566C49.7071 7.90085 50.6378 6.90792 52.0339 6.90792C53.4467 6.90792 54.3442 7.96818 54.3442 9.78566V10.0212Z" fill="black"/>
<path fill-rule="evenodd" clip-rule="evenodd" d="M40.4297 14.6533H42.9637V10.2198C42.9637 8.17097 43.4704 7.4489 45.5652 7.4489H46.6125V4.87952H45.9875C44.18 4.87952 43.1833 5.6688 42.7947 7.21379L42.4737 5.00189H40.4297V14.6533Z" fill="black"/>
<path fill-rule="evenodd" clip-rule="evenodd" d="M29.2266 2.72791V14.6531H33.8274C36.8243 14.6531 39.0805 12.9123 39.0805 9.06249V8.24226C39.0805 4.40919 36.6897 2.72791 33.7601 2.72791H29.2266ZM31.7384 4.87936H33.655C35.3861 4.87936 36.5687 5.97306 36.5687 8.37921V9.00181C36.5687 11.4079 35.4204 12.5017 33.7408 12.5017H31.7384V4.87936Z" fill="black"/>
<path d="M5.88035 0.244507L0.367188 3.75062L5.88035 7.25673L11.3944 3.75062L16.9076 7.25673L22.4208 3.75062L16.9076 0.244507L11.3944 3.75062L5.88035 0.244507Z" fill="#0056FE"/>
<path d="M5.88035 14.269L0.367188 10.7629L5.88035 7.25671L11.3944 10.7629L5.88035 14.269Z" fill="#0056FE"/>
<path d="M11.3906 10.7629L16.9038 7.25671L22.417 10.7629L16.9038 14.269L11.3906 10.7629Z" fill="#0056FE"/>
<path d="M11.3891 18.9439L5.875 15.4377L11.3891 11.9316L16.9023 15.4377L11.3891 18.9439Z" fill="#0056FE"/>
</svg>

<svg xmlns="http://www.w3.org/2000/svg" width="320" height="64" fill="none" viewBox="0 0 100 20"><path fill="#000" fill-rule="evenodd" d="M89.313 14.653 93 9.691 89.6 5.002h2.913l1.97 2.926 1.989-2.926h2.897l-3.453 4.672 3.637 4.98H96.69l-2.24-3.15-2.173 3.15h-2.965Z" clip-rule="evenodd"/><path fill="#000" fill-rule="evenodd" d="M80.04 10.02c0 3.186 1.739 4.879 4.82 4.879 2.884 0 4.84-1.693 4.84-4.878v-.269c0-3.218-1.99-4.996-4.84-4.996-2.783 0-4.82 1.744-4.82 4.996v.268Zm7.148.001c0 1.767-.881 2.727-2.328 2.727-1.429 0-2.31-.976-2.31-2.727v-.235c0-1.885.931-2.878 2.327-2.878 1.413 0 2.31 1.06 2.31 2.878v.235ZM71.613 12.888c.522 1.24 1.568 2.011 3.17 2.011 2.478 0 4.097-1.81 4.097-5.027v-.285c0-3.218-1.72-4.81-4.03-4.826-1.534 0-2.613.687-3.153 1.944v-4.96H69.22v12.903h2.192l.202-1.76Zm4.755-2.993c0 1.913-.884 2.853-2.336 2.853-1.384 0-2.301-1.04-2.301-2.853v-.202c0-1.66.95-2.785 2.335-2.785 1.334 0 2.302.973 2.302 2.752v.235ZM58.21 5.014v12.959h2.475V13.12c.522 1.127 1.548 1.817 3.097 1.817 2.289 0 4.09-1.666 4.09-4.863v-.27c0-3.264-1.616-5.048-4.09-5.048-1.6 0-2.676.825-3.198 2.07l-.253-1.812h-2.12Zm7.15 4.998c0 1.78-.918 2.736-2.352 2.736-1.385 0-2.285-1.074-2.285-2.786v-.185c0-1.795.934-2.87 2.335-2.87 1.318 0 2.302.957 2.302 2.887v.218ZM47.195 10.02c0 3.186 1.757 4.879 4.839 4.879 2.883 0 4.822-1.693 4.822-4.878v-.269c0-3.218-1.972-4.996-4.822-4.996-2.784 0-4.839 1.744-4.839 4.996v.268Zm7.15.001c0 1.767-.898 2.727-2.328 2.727-1.429 0-2.31-.976-2.31-2.727v-.235c0-1.885.93-2.878 2.327-2.878 1.413 0 2.31 1.06 2.31 2.878v.235ZM40.43 14.653h2.534V10.22c0-2.049.506-2.771 2.601-2.771h1.047v-2.57h-.625c-1.807 0-2.804.79-3.192 2.335l-.321-2.212H40.43v9.651ZM29.227 2.728v11.925h4.6c2.997 0 5.254-1.74 5.254-5.59v-.82c0-3.834-2.391-5.515-5.32-5.515h-4.534Zm2.511 2.151h1.917c1.731 0 2.914 1.094 2.914 3.5v.623c0 2.406-1.149 3.5-2.828 3.5h-2.003V4.879Z" clip-rule="evenodd"/><path fill="#0056FE" d="M5.88.245.367 3.75 5.88 7.257l5.514-3.506 5.514 3.506L22.42 3.75 16.908.245 11.394 3.75 5.88.245ZM5.88 14.269.367 10.763 5.88 7.257l5.514 3.506-5.514 3.506Z"/><path fill="#0056FE" d="m11.39 10.763 5.514-3.506 5.513 3.506-5.513 3.506-5.513-3.506ZM11.39 18.944l-5.515-3.506 5.514-3.506 5.513 3.506-5.513 3.506Z"/></svg>
